X:15711
T:Solus Lillis' Reel
R:reel
H:Also played in G, see #69
D:Ashplant.
Z:id:hn-reel-775
M:C|
K:C
c2Bc AcGA|c2ec gcec|c2Bc AcGc|eaag ed~d2:|
|:ed~d2 edcd|ed~d2 eaag|ed~d2 edcA|1 ~c3d eaag:|2 ~c3d eage||
